packages/ui-icons/svg/Solid/calendar-month.svg

<svg viewBox="0 0 1920 1920" version="1.1" xmlns="http://www.w3.org/2000/svg">
    <path d="M1637.706 112.941c93.404 0 169.412 76.01 169.412 169.412V1920H113V282.353c0-93.402 76.009-169.412 169.412-169.412h169.411v-56.47c0-31.172 25.3-56.471 56.471-56.471 31.172 0 56.471 25.299 56.471 56.471v56.47h790.589v-56.47c0-31.172 25.299-56.471 56.47-56.471s56.47 25.299 56.47 56.471v56.47h169.412zm56.47 338.824V282.353c0-31.172-25.411-56.471-56.47-56.471h-169.412v56.471c0 31.172-25.299 56.471-56.47 56.471s-56.47-25.299-56.47-56.471v-56.471H564.765v56.471c0 31.172-25.299 56.471-56.471 56.471-31.171 0-56.471-25.299-56.471-56.471v-56.471H282.412c-31.059 0-56.47 25.299-56.47 56.471v169.412h1468.234zm-451.762 677.647h338.823V790.588h-338.823v338.824zm0 451.765h338.823v-338.823h-338.823v338.823zm-451.767-451.765h338.824V790.588H790.647v338.824zm0 451.765h338.824v-338.823H790.647v338.823zm-451.765-451.765h338.824V790.588H338.882v338.824zm0 451.765h338.824v-338.823H338.882v338.823z" stroke="none" stroke-width="1" fill-rule="evenodd"/>
</svg>

<svg viewBox="0 0 1920 1920" version="1.1" xmlns="http://www.w3.org/2000/svg">
    <path d="M1411.824,2.84217094e-14 C1442.995,2.84217094e-14 1468.294,25.299 1468.294,56.471 L1468.294,56.471 L1468.294,112.941 L1637.706,112.941 C1731.11,112.941 1807.118,188.951 1807.118,282.353 L1807.118,282.353 L1807.118,1920 L113,1920 L113,282.353 C113,188.951 189.009,112.941 282.412,112.941 L282.412,112.941 L451.823,112.941 L451.823,56.471 C451.823,25.299 477.123,2.84217094e-14 508.294,2.84217094e-14 C539.466,2.84217094e-14 564.765,25.299 564.765,56.471 L564.765,56.471 L564.765,112.941 L1355.354,112.941 L1355.354,56.471 C1355.354,25.299 1380.653,2.84217094e-14 1411.824,2.84217094e-14 Z M1581.237,1242.354 L1242.414,1242.354 L1242.414,1581.177 L1581.237,1581.177 L1581.237,1242.354 Z M1129.471,1242.354 L790.647,1242.354 L790.647,1581.177 L1129.471,1581.177 L1129.471,1242.354 Z M677.706,1242.354 L338.882,1242.354 L338.882,1581.177 L677.706,1581.177 L677.706,1242.354 Z M1581.237,790.588 L1242.414,790.588 L1242.414,1129.412 L1581.237,1129.412 L1581.237,790.588 Z M1129.471,790.588 L790.647,790.588 L790.647,1129.412 L1129.471,1129.412 L1129.471,790.588 Z M677.706,790.588 L338.882,790.588 L338.882,1129.412 L677.706,1129.412 L677.706,790.588 Z M451.823,225.882 L282.412,225.882 C251.353,225.882 225.942,251.181 225.942,282.353 L225.942,282.353 L225.942,451.765 L1694.176,451.765 L1694.176,282.353 C1694.176,251.181 1668.765,225.882 1637.706,225.882 L1637.706,225.882 L1468.294,225.882 L1468.294,282.353 C1468.294,313.525 1442.995,338.824 1411.824,338.824 C1380.653,338.824 1355.354,313.525 1355.354,282.353 L1355.354,282.353 L1355.354,225.882 L564.765,225.882 L564.765,282.353 C564.765,313.525 539.466,338.824 508.294,338.824 C477.123,338.824 451.823,313.525 451.823,282.353 L451.823,282.353 L451.823,225.882 Z" stroke="none" stroke-width="1" fill-rule="evenodd"/>
</svg>
